X: 25963
T: May Bán
R: hornpipe
M: 4/4
K: Dmajor
B3A F3E|D2FD EDB,D|A,B,DE F2DE|FEED E2FA|
B3A F3E|D2FD EDB,D|A,B,DE F2EG|1 FDDE Dedc:|2 FDDE D3E||
|:FABc dBAd|Beef dBAF|ABde f2de|feed e3e|
edBc dBAF|D2FD EDB,D|A,B,DE F2EG|1 FDDE D3E:|2 FDDE Dedc||

